X: 10051
Q: "Reel."
M: C|
L: 1/8
K: C
cBAG A<cE2 | G2GE G3B |\
cBAG A<cE2 | D<D E>G A3 ::\
(Gc) .c.c Tc2cc | (Ad) .d.d Td2cd |
edcB cBAG | AcBd c3G |\
(Gc) .c.c Tc2cc | (Ad) .d.d Td2cd |\
edcB cBAG | (A/B/c) (B/c/d) c3 |]


